X: 184
T: Charming Mary O'Neill
N:"Tenderly" "collected by F. O'Neill"
B:O'Neill's 184
Z:Transcribed by henrik.norbeck@mailbox.swipnet.se
M:3/4
L:1/8
K:Dmix
d2 e2 f2|g4 g2|(a4 g2)|(f4 d2)|
d2 c2 A2|(c4 A2)|G4 G2|G6"fine"||
(G2 A2 B2)|(c4 A2)|c4 e2|d4 c2|
A2 B2 ^c2|d4 d2|e2 d2 ^c2|d4"D.C.":|


